src/assets/images/appstore.svg

<svg width="220" height="64" viewBox="0 0 220 64" fill="none" xmlns="http://www.w3.org/2000/svg">
<path d="M218.778 56.2256C218.778 59.6126 215.977 62.3561 212.513 62.3561H7.49514C4.03267 62.3561 1.22217 59.6126 1.22217 56.2256V7.33728C1.22217 3.95193 4.03267 1.19883 7.49514 1.19883H212.511C215.977 1.19883 218.776 3.95193 218.776 7.33728L218.778 56.2256Z" fill="black"/>
<path d="M211.852 1.27306C215.624 1.27306 218.694 4.26612 218.694 7.9444V55.6111C218.694 59.2893 215.624 62.2824 211.852 62.2824H8.14815C4.37556 62.2824 1.30574 59.2893 1.30574 55.6111V7.9444C1.30574 4.26612 4.37556 1.27306 8.14815 1.27306H211.852ZM211.852 -4.01972e-05H8.14815C3.6687 -4.01972e-05 0 3.57695 0 7.9444V55.6111C0 59.9785 3.6687 63.5555 8.14815 63.5555H211.852C216.331 63.5555 220 59.9785 220 55.6111V7.9444C220 3.57695 216.331 -4.01972e-05 211.852 -4.01972e-05Z" fill="#A6A6A6"/>
<path d="M49.0975 31.4345C49.0502 26.3135 53.3981 23.8222 53.5969 23.7062C51.1345 20.2058 47.3179 19.7276 45.9767 19.6895C42.7713 19.3606 39.6619 21.5596 38.029 21.5596C36.3636 21.5596 33.849 19.7212 31.139 19.7753C27.6516 19.8277 24.389 21.7963 22.5997 24.8533C18.907 31.0866 21.661 40.2465 25.199 45.2849C26.9687 47.7524 29.0367 50.5075 31.7436 50.4106C34.3917 50.3042 35.3809 48.7645 38.5766 48.7645C41.743 48.7645 42.6719 50.4106 45.4324 50.3487C48.2745 50.3042 50.0639 47.87 51.7717 45.3802C53.8169 42.552 54.6382 39.7667 54.6708 39.6237C54.604 39.6014 49.1513 37.5724 49.0975 31.4345Z" fill="white"/>
<path d="M43.8827 16.375C45.307 14.6384 46.2815 12.2757 46.011 9.87807C43.9495 9.96705 41.3714 11.2684 39.8868 12.9669C38.5733 14.4636 37.4 16.9169 37.7031 19.2239C40.0188 19.3923 42.3965 18.0847 43.8827 16.375Z" fill="white"/>
<path d="M87.4214 50.0566H83.7205L81.6933 43.8456H74.6468L72.7157 50.0566H69.1125L76.0939 28.9117H80.4059L87.4214 50.0566ZM81.0822 41.2399L79.2488 35.7185C79.0549 35.1544 78.6915 33.8261 78.1554 31.7351H78.0902C77.8767 32.6344 77.5328 33.9628 77.0602 35.7185L75.2595 41.2399H81.0822Z" fill="white"/>
<path d="M105.375 42.2462C105.375 44.8393 104.656 46.8889 103.219 48.3936C101.932 49.733 100.333 50.402 98.4247 50.402C96.3649 50.402 94.8852 49.6806 93.984 48.2379H93.9188V56.2697H90.4444V39.8295C90.4444 38.1993 90.4004 36.5262 90.3157 34.8102H93.3712L93.5652 37.2269H93.6303C94.789 35.406 96.5474 34.4972 98.9071 34.4972C100.752 34.4972 102.292 35.2074 103.524 36.6295C104.759 38.0531 105.375 39.9248 105.375 42.2462ZM101.836 42.3701C101.836 40.8861 101.493 39.6627 100.806 38.6998C100.054 37.6956 99.0456 37.1935 97.781 37.1935C96.9238 37.1935 96.1449 37.4732 95.449 38.0245C94.7515 38.5806 94.2952 39.3068 94.0817 40.2061C93.9742 40.6255 93.9204 40.9687 93.9204 41.2388V43.7811C93.9204 44.8901 94.2692 45.826 94.9666 46.5902C95.6641 47.3545 96.5702 47.7358 97.6849 47.7358C98.9935 47.7358 100.012 47.2432 100.74 46.2613C101.47 45.2778 101.836 43.9813 101.836 42.3701Z" fill="white"/>
<path d="M123.361 42.2462C123.361 44.8393 122.643 46.8889 121.204 48.3936C119.918 49.733 118.319 50.402 116.411 50.402C114.351 50.402 112.871 49.6806 111.972 48.2379H111.907V56.2697H108.432V39.8295C108.432 38.1993 108.388 36.5262 108.303 34.8102H111.359L111.553 37.2269H111.618C112.775 35.406 114.534 34.4972 116.895 34.4972C118.738 34.4972 120.278 35.2074 121.513 36.6295C122.744 38.0531 123.361 39.9248 123.361 42.2462ZM119.822 42.3701C119.822 40.8861 119.478 39.6627 118.79 38.6998C118.039 37.6956 117.033 37.1935 115.767 37.1935C114.908 37.1935 114.131 37.4732 113.434 38.0245C112.736 38.5806 112.281 39.3068 112.068 40.2061C111.962 40.6255 111.907 40.9687 111.907 41.2388V43.7811C111.907 44.8901 112.255 45.826 112.95 46.5902C113.647 47.3529 114.553 47.7358 115.671 47.7358C116.98 47.7358 117.998 47.2432 118.727 46.2613C119.457 45.2778 119.822 43.9813 119.822 42.3701Z" fill="white"/>
<path d="M143.471 44.1269C143.471 45.9255 142.831 47.3889 141.545 48.5186C140.132 49.7532 138.165 50.3696 135.637 50.3696C133.304 50.3696 131.433 49.9311 130.017 49.0525L130.822 46.229C132.347 47.1283 134.021 47.5796 135.844 47.5796C137.153 47.5796 138.171 47.2904 138.903 46.7152C139.632 46.14 139.995 45.3678 139.995 44.405C139.995 43.547 139.695 42.824 139.094 42.2377C138.496 41.6514 137.497 41.1064 136.102 40.6027C132.305 39.222 130.408 37.1993 130.408 34.5395C130.408 32.8013 131.073 31.3761 132.404 30.267C133.731 29.1564 135.5 28.6019 137.713 28.6019C139.687 28.6019 141.326 28.9371 142.635 29.606L141.766 32.3675C140.544 31.7193 139.162 31.3951 137.616 31.3951C136.393 31.3951 135.439 31.6891 134.754 32.2738C134.176 32.7965 133.885 33.4337 133.885 34.1884C133.885 35.0242 134.216 35.7153 134.881 36.2587C135.46 36.7608 136.511 37.3042 138.036 37.8905C139.902 38.623 141.273 39.4794 142.154 40.4613C143.033 41.4401 143.471 42.6651 143.471 44.1269Z" fill="white"/>
<path d="M154.958 37.352H151.128V44.7546C151.128 46.6374 151.803 47.578 153.156 47.578C153.777 47.578 154.292 47.5256 154.699 47.4207L154.795 49.9932C154.111 50.2426 153.21 50.3681 152.093 50.3681C150.721 50.3681 149.649 49.9598 148.875 49.1447C148.104 48.328 147.716 46.9584 147.716 45.0342V37.3488H145.435V34.8066H147.716V32.0149L151.128 31.0107V34.8066H154.958V37.352Z" fill="white"/>
<path d="M172.237 42.3074C172.237 44.651 171.549 46.5752 170.177 48.0799C168.738 49.629 166.828 50.4012 164.448 50.4012C162.153 50.4012 160.326 49.6592 158.964 48.1752C157.601 46.6912 156.92 44.8179 156.92 42.5601C156.92 40.1974 157.621 38.2621 159.027 36.7574C160.431 35.2512 162.324 34.498 164.705 34.498C167 34.498 168.846 35.2401 170.239 36.7257C171.572 38.1668 172.237 40.0274 172.237 42.3074ZM168.632 42.4171C168.632 41.0109 168.324 39.8049 167.7 38.7992C166.972 37.5821 165.931 36.9751 164.581 36.9751C163.185 36.9751 162.124 37.5837 161.395 38.7992C160.771 39.8065 160.463 41.0315 160.463 42.4806C160.463 43.8868 160.771 45.0927 161.395 46.0969C162.147 47.314 163.196 47.921 164.55 47.921C165.877 47.921 166.918 47.3013 167.669 46.0651C168.31 45.0403 168.632 43.8216 168.632 42.4171Z" fill="white"/>
<path d="M183.531 37.7894C183.187 37.7274 182.82 37.6956 182.435 37.6956C181.213 37.6956 180.268 38.1453 179.603 39.0462C179.025 39.8406 178.735 40.8448 178.735 42.0571V50.0572H175.262L175.294 39.6118C175.294 37.8545 175.25 36.2545 175.164 34.8118H178.19L178.317 37.729H178.414C178.78 36.7264 179.359 35.9192 180.151 35.3139C180.925 34.7689 181.761 34.4972 182.662 34.4972C182.983 34.4972 183.273 34.5194 183.531 34.5592V37.7894Z" fill="white"/>
<path d="M199.069 41.7117C199.069 42.3187 199.028 42.8303 198.942 43.2482H188.519C188.56 44.7544 189.063 45.9064 190.031 46.7008C190.91 47.4111 192.045 47.767 193.44 47.767C194.984 47.767 196.392 47.527 197.658 47.0456L198.202 49.3972C196.722 50.0264 194.975 50.3394 192.96 50.3394C190.535 50.3394 188.631 49.6434 187.246 48.2532C185.864 46.8629 185.172 44.9959 185.172 42.6539C185.172 40.3548 185.815 38.4402 187.104 36.9133C188.454 35.2831 190.277 34.468 192.572 34.468C194.826 34.468 196.532 35.2831 197.69 36.9133C198.608 38.2082 199.069 39.8098 199.069 41.7117ZM195.756 40.8331C195.779 39.8289 195.552 38.9613 195.081 38.2289C194.48 37.2867 193.556 36.8163 192.313 36.8163C191.177 36.8163 190.253 37.2755 189.547 38.1971C188.969 38.9296 188.625 39.8082 188.519 40.8315H195.756V40.8331Z" fill="white"/>
<path d="M79.9333 15.9032C79.9333 17.7733 79.358 19.1811 78.2091 20.1264C77.145 20.9987 75.6327 21.4357 73.6739 21.4357C72.7026 21.4357 71.8715 21.3944 71.1757 21.3118V11.0936C72.0834 10.9506 73.0611 10.8775 74.1171 10.8775C75.9831 10.8775 77.3894 11.2732 78.3379 12.0644C79.4004 12.959 79.9333 14.238 79.9333 15.9032ZM78.1326 15.9493C78.1326 14.7369 77.8034 13.8074 77.145 13.1592C76.4866 12.5125 75.5251 12.1884 74.2589 12.1884C73.7211 12.1884 73.2632 12.2233 72.8835 12.2964V20.0645C73.0937 20.0963 73.4783 20.1105 74.0373 20.1105C75.3443 20.1105 76.353 19.7562 77.0635 19.0476C77.774 18.3389 78.1326 17.3062 78.1326 15.9493Z" fill="white"/>
<path d="M89.4813 17.5366C89.4813 18.6885 89.1439 19.6323 88.4693 20.3727C87.762 21.1338 86.825 21.5136 85.6549 21.5136C84.5272 21.5136 83.6293 21.1497 82.9595 20.4188C82.2914 19.6895 81.9573 18.7695 81.9573 17.6605C81.9573 16.5006 82.3011 15.5489 82.9921 14.81C83.6831 14.0712 84.6119 13.701 85.782 13.701C86.9097 13.701 87.8158 14.0648 88.5019 14.7941C89.1537 15.5028 89.4813 16.418 89.4813 17.5366ZM87.7099 17.5906C87.7099 16.8994 87.5567 16.3068 87.2519 15.8126C86.8934 15.2152 86.3834 14.9165 85.7201 14.9165C85.034 14.9165 84.5125 15.2152 84.154 15.8126C83.8476 16.3068 83.6961 16.909 83.6961 17.6208C83.6961 18.3119 83.8493 18.9046 84.154 19.3987C84.5239 19.9962 85.0389 20.2949 85.7038 20.2949C86.3556 20.2949 86.8674 19.9914 87.2356 19.3829C87.5518 18.8792 87.7099 18.2818 87.7099 17.5906Z" fill="white"/>
<path d="M102.284 13.8535L99.88 21.3436H98.3155L97.3198 18.0911C97.0672 17.2792 96.8619 16.472 96.7022 15.6712H96.6712C96.5229 16.4943 96.3176 17.2998 96.0536 18.0911L94.996 21.3436H93.4136L91.1533 13.8535H92.9084L93.777 17.4142C93.9872 18.2563 94.16 19.0587 94.2985 19.8182H94.3295C94.4566 19.1922 94.6668 18.3946 94.9634 17.4301L96.0536 13.8551H97.4453L98.4899 17.3539C98.7425 18.2071 98.9478 19.0285 99.1059 19.8198H99.1532C99.2689 19.0492 99.4432 18.2277 99.6746 17.3539L100.607 13.8551H102.284V13.8535Z" fill="white"/>
<path d="M111.137 21.3436H109.43V17.0536C109.43 15.7316 108.915 15.0707 107.881 15.0707C107.375 15.0707 106.966 15.2518 106.648 15.6156C106.333 15.9795 106.174 16.4085 106.174 16.8995V21.342H104.466V15.9938C104.466 15.336 104.445 14.6226 104.404 13.8504H105.905L105.985 15.0214H106.032C106.231 14.6575 106.527 14.3572 106.917 14.1173C107.38 13.8377 107.898 13.6963 108.465 13.6963C109.182 13.6963 109.778 13.9219 110.253 14.3747C110.842 14.9292 111.137 15.7571 111.137 16.8566V21.3436Z" fill="white"/>
<path d="M115.847 21.3432H114.141V10.4165H115.847V21.3432Z" fill="white"/>
<path d="M125.902 17.5366C125.902 18.6885 125.565 19.6323 124.89 20.3727C124.183 21.1338 123.244 21.5136 122.076 21.5136C120.946 21.5136 120.048 21.1497 119.38 20.4188C118.712 19.6895 118.378 18.7695 118.378 17.6605C118.378 16.5006 118.722 15.5489 119.413 14.81C120.104 14.0712 121.033 13.701 122.201 13.701C123.33 13.701 124.235 14.0648 124.923 14.7941C125.574 15.5028 125.902 16.418 125.902 17.5366ZM124.129 17.5906C124.129 16.8994 123.976 16.3068 123.671 15.8126C123.314 15.2152 122.802 14.9165 122.141 14.9165C121.453 14.9165 120.932 15.2152 120.575 15.8126C120.268 16.3068 120.117 16.909 120.117 17.6208C120.117 18.3119 120.27 18.9046 120.575 19.3987C120.945 19.9962 121.46 20.2949 122.124 20.2949C122.776 20.2949 123.286 19.9914 123.655 19.3829C123.972 18.8792 124.129 18.2818 124.129 17.5906Z" fill="white"/>
<path d="M134.167 21.3435H132.634L132.507 20.4808H132.46C131.935 21.1688 131.187 21.5136 130.216 21.5136C129.49 21.5136 128.904 21.2863 128.462 20.8351C128.061 20.4252 127.861 19.9151 127.861 19.3098C127.861 18.3946 128.252 17.697 129.039 17.214C129.824 16.731 130.929 16.4943 132.352 16.5054V16.3656C132.352 15.3789 131.821 14.8863 130.757 14.8863C129.999 14.8863 129.331 15.0722 128.754 15.4408L128.407 14.3477C129.12 13.9171 130.002 13.701 131.042 13.701C133.049 13.701 134.057 14.7338 134.057 16.7993V19.5576C134.057 20.306 134.094 20.9018 134.167 21.3435ZM132.394 18.7695V17.6144C130.51 17.5826 129.569 18.0863 129.569 19.1239C129.569 19.5147 129.676 19.8071 129.896 20.0025C130.116 20.198 130.396 20.2949 130.73 20.2949C131.105 20.2949 131.456 20.1789 131.775 19.9485C132.096 19.7165 132.293 19.4226 132.367 19.0619C132.385 18.9809 132.394 18.8824 132.394 18.7695Z" fill="white"/>
<path d="M143.872 21.3432H142.356L142.276 20.1405H142.229C141.745 21.0557 140.921 21.5133 139.762 21.5133C138.836 21.5133 138.065 21.1589 137.454 20.4503C136.843 19.7416 136.538 18.8217 136.538 17.692C136.538 16.4797 136.869 15.4977 137.534 14.7478C138.178 14.0487 138.967 13.6991 139.905 13.6991C140.937 13.6991 141.659 14.0375 142.069 14.716H142.102V10.4165H143.811V19.3254C143.811 20.0547 143.831 20.7268 143.872 21.3432ZM142.102 18.1845V16.9357C142.102 16.7196 142.086 16.5448 142.055 16.4113C141.959 16.0109 141.752 15.6741 141.437 15.4024C141.119 15.1307 140.736 14.994 140.295 14.994C139.658 14.994 139.159 15.2403 138.792 15.7345C138.429 16.2286 138.245 16.8594 138.245 17.63C138.245 18.3704 138.419 18.971 138.769 19.4334C139.139 19.926 139.638 20.1722 140.262 20.1722C140.823 20.1722 141.271 19.9673 141.611 19.5557C141.941 19.176 142.102 18.7184 142.102 18.1845Z" fill="white"/>
<path d="M158.478 17.5366C158.478 18.6885 158.141 19.6323 157.466 20.3727C156.759 21.1338 155.824 21.5136 154.652 21.5136C153.526 21.5136 152.628 21.1497 151.956 20.4188C151.288 19.6895 150.954 18.7695 150.954 17.6605C150.954 16.5006 151.298 15.5489 151.989 14.81C152.68 14.0712 153.609 13.701 154.781 13.701C155.907 13.701 156.814 14.0648 157.499 14.7941C158.151 15.5028 158.478 16.418 158.478 17.5366ZM156.708 17.5906C156.708 16.8994 156.555 16.3068 156.251 15.8126C155.89 15.2152 155.382 14.9165 154.717 14.9165C154.033 14.9165 153.511 15.2152 153.151 15.8126C152.845 16.3068 152.693 16.909 152.693 17.6208C152.693 18.3119 152.846 18.9046 153.151 19.3987C153.521 19.9962 154.036 20.2949 154.701 20.2949C155.353 20.2949 155.866 19.9914 156.234 19.3829C156.549 18.8792 156.708 18.2818 156.708 17.5906Z" fill="white"/>
<path d="M167.661 21.3436H165.955V17.0536C165.955 15.7316 165.44 15.0707 164.405 15.0707C163.898 15.0707 163.489 15.2518 163.173 15.6156C162.857 15.9795 162.699 16.4085 162.699 16.8995V21.342H160.989V15.9938C160.989 15.336 160.97 14.6226 160.929 13.8504H162.428L162.508 15.0214H162.556C162.756 14.6575 163.053 14.3572 163.44 14.1173C163.905 13.8377 164.421 13.6963 164.99 13.6963C165.706 13.6963 166.302 13.9219 166.776 14.3747C167.368 14.9292 167.661 15.7571 167.661 16.8566V21.3436Z" fill="white"/>
<path d="M179.155 15.1009H177.274V18.7394C177.274 19.6642 177.608 20.1265 178.27 20.1265C178.576 20.1265 178.831 20.1011 179.031 20.0487L179.075 21.3119C178.738 21.4358 178.295 21.4978 177.749 21.4978C177.074 21.4978 176.549 21.2976 176.169 20.8972C175.788 20.4968 175.599 19.8231 175.599 18.8777V15.1009H174.476V13.8536H175.599V12.4808L177.273 11.9883V13.852H179.153V15.1009H179.155Z" fill="white"/>
<path d="M188.196 21.3432H186.487V17.085C186.487 15.7424 185.972 15.0703 184.94 15.0703C184.148 15.0703 183.607 15.4596 183.31 16.2381C183.26 16.4018 183.231 16.602 183.231 16.8372V21.3417H181.524V10.4165H183.231V14.9305H183.263C183.801 14.109 184.572 13.6991 185.571 13.6991C186.278 13.6991 186.863 13.9247 187.328 14.3776C187.906 14.9416 188.196 15.7805 188.196 16.8896V21.3432Z" fill="white"/>
<path d="M197.522 17.2439C197.522 17.5426 197.5 17.7937 197.459 17.9986H192.337C192.36 18.7391 192.604 19.3031 193.078 19.694C193.512 20.0435 194.071 20.2183 194.755 20.2183C195.513 20.2183 196.204 20.1007 196.827 19.864L197.094 21.0207C196.365 21.3289 195.508 21.4831 194.516 21.4831C193.326 21.4831 192.389 21.1415 191.711 20.4582C191.03 19.775 190.693 18.8582 190.693 17.7079C190.693 16.5782 191.007 15.6375 191.641 14.8876C192.303 14.0868 193.197 13.6864 194.327 13.6864C195.432 13.6864 196.271 14.0868 196.838 14.8876C197.296 15.5231 197.522 16.3096 197.522 17.2439ZM195.893 16.8133C195.906 16.3192 195.793 15.8934 195.562 15.5343C195.265 15.0719 194.814 14.8399 194.203 14.8399C193.646 14.8399 193.191 15.0655 192.844 15.5184C192.56 15.8791 192.392 16.3096 192.337 16.8133H195.893Z" fill="white"/>
</svg>

<svg xmlns="http://www.w3.org/2000/svg" width="220" height="64" fill="none"><path fill="#000" d="M218.778 56.226c0 3.387-2.801 6.13-6.265 6.13H7.495c-3.462 0-6.273-2.743-6.273-6.13V7.337c0-3.385 2.81-6.138 6.273-6.138h205.016c3.466 0 6.265 2.753 6.265 6.138z"/><path fill="#A6A6A6" d="M211.852 1.273c3.772 0 6.842 2.993 6.842 6.671v47.667c0 3.678-3.07 6.671-6.842 6.671H8.148c-3.772 0-6.842-2.993-6.842-6.67V7.943c0-3.678 3.07-6.67 6.842-6.67zm0-1.273H8.148C3.668 0 0 3.577 0 7.944v47.667c0 4.368 3.669 7.945 8.148 7.945h203.704c4.479 0 8.148-3.578 8.148-7.945V7.944C220 3.577 216.331 0 211.852 0"/><path fill="#fff" d="M49.098 31.435c-.048-5.121 4.3-7.613 4.499-7.729-2.462-3.5-6.28-3.978-7.62-4.017-3.206-.328-6.315 1.87-7.948 1.87-1.665 0-4.18-1.838-6.89-1.784-3.487.053-6.75 2.021-8.54 5.078-3.692 6.234-.938 15.393 2.6 20.432 1.77 2.467 3.838 5.223 6.545 5.126 2.648-.107 3.637-1.647 6.833-1.647 3.166 0 4.095 1.647 6.855 1.585 2.843-.045 4.632-2.479 6.34-4.969 2.045-2.828 2.866-5.613 2.899-5.756-.067-.023-5.52-2.052-5.574-8.19M43.883 16.375c1.424-1.737 2.398-4.1 2.128-6.497-2.062.09-4.64 1.39-6.124 3.089-1.314 1.497-2.487 3.95-2.184 6.257 2.316.168 4.694-1.14 6.18-2.849M87.421 50.057h-3.7l-2.028-6.211h-7.046l-1.931 6.21h-3.603l6.98-21.144h4.313zm-6.339-8.817-1.833-5.522q-.29-.846-1.094-3.983h-.065q-.32 1.35-1.03 3.983l-1.8 5.522zM105.375 42.246q0 3.89-2.156 6.148-1.931 2.008-4.794 2.008-3.09 0-4.441-2.164h-.065v8.032h-3.475V39.83q-.001-2.446-.128-5.02h3.055l.194 2.417h.065q1.738-2.73 5.277-2.73 2.768 0 4.617 2.133 1.852 2.135 1.851 5.616m-3.539.124q0-2.226-1.03-3.67-1.128-1.506-3.025-1.507c-.857 0-1.636.28-2.332.832q-1.047.833-1.367 2.181-.162.629-.162 1.033v2.542q0 1.664 1.047 2.81t2.718 1.145q1.963-.001 3.055-1.475 1.095-1.475 1.096-3.89M123.361 42.246q0 3.89-2.157 6.148-1.93 2.008-4.793 2.008-3.09 0-4.439-2.164h-.065v8.032h-3.475V39.83q0-2.446-.129-5.02h3.056l.194 2.417h.065q1.736-2.73 5.277-2.73 2.765 0 4.618 2.133 1.847 2.135 1.848 5.616m-3.539.124q0-2.226-1.032-3.67-1.125-1.506-3.023-1.507c-.859 0-1.636.28-2.333.832q-1.047.833-1.366 2.181-.16.629-.161 1.033v2.542q0 1.664 1.043 2.81 1.045 1.144 2.721 1.145 1.963-.001 3.056-1.475 1.095-1.475 1.095-3.89M143.471 44.127q.002 2.697-1.926 4.392-2.118 1.85-5.908 1.85-3.498 0-5.62-1.316l.805-2.824q2.288 1.35 5.022 1.35 1.962 0 3.059-.864 1.093-.864 1.092-2.31 0-1.288-.901-2.167-.898-.88-2.992-1.635-5.695-2.073-5.694-6.064 0-2.608 1.996-4.272 1.99-1.665 5.309-1.665 2.96 0 4.922 1.004l-.869 2.761q-1.832-.972-4.15-.972-1.835 0-2.862.879-.868.784-.869 1.914 0 1.255.996 2.07.868.753 3.155 1.633 2.798 1.098 4.118 2.57 1.318 1.471 1.317 3.666M154.958 37.352h-3.83v7.403q0 2.823 2.028 2.823.932 0 1.543-.157l.096 2.572q-1.026.375-2.702.375-2.058 0-3.218-1.223-1.158-1.225-1.159-4.11v-7.686h-2.281v-2.542h2.281v-2.792l3.412-1.004v3.796h3.83zM172.237 42.307q-.001 3.516-2.06 5.773-2.159 2.322-5.729 2.321-3.442 0-5.484-2.226-2.044-2.227-2.044-5.615-.001-3.545 2.107-5.803 2.106-2.259 5.678-2.259 3.443 0 5.534 2.228 1.999 2.16 1.998 5.581m-3.605.11c0-1.406-.308-2.612-.932-3.618q-1.093-1.825-3.119-1.824-2.093 0-3.186 1.824c-.624 1.008-.932 2.233-.932 3.682 0 1.406.308 2.612.932 3.616.752 1.217 1.801 1.824 3.155 1.824q1.992-.001 3.119-1.856.962-1.539.963-3.648M183.531 37.79a6 6 0 0 0-1.096-.094q-1.834 0-2.832 1.35-.868 1.193-.868 3.011v8h-3.473l.032-10.445q0-2.637-.13-4.8h3.026l.127 2.917h.097q.549-1.506 1.737-2.415 1.16-.817 2.511-.817.482.001.869.062zM199.069 41.712q.001.91-.127 1.536h-10.423q.06 2.26 1.512 3.453 1.317 1.066 3.409 1.066 2.317 0 4.218-.721l.544 2.351q-2.22.944-5.242.942-3.637 0-5.714-2.086-2.074-2.085-2.074-5.6 0-3.448 1.932-5.74 2.025-2.445 5.468-2.445 3.381 0 5.118 2.445 1.378 1.944 1.379 4.799m-3.313-.879q.033-1.506-.675-2.604-.903-1.413-2.768-1.413-1.706 0-2.766 1.381-.868 1.1-1.028 2.634h7.237zM79.933 15.903q0 2.805-1.724 4.223-1.596 1.31-4.535 1.31-1.456 0-2.498-.124V11.094a19 19 0 0 1 2.941-.216q2.799 0 4.22 1.186 1.595 1.342 1.596 3.84m-1.8.046q0-1.818-.988-2.79-.987-.97-2.886-.97-.806-.001-1.376.107v7.768q.315.047 1.154.046 1.96 0 3.026-1.062 1.068-1.064 1.07-3.099M89.481 17.537q0 1.726-1.012 2.836-1.06 1.14-2.814 1.14-1.692.001-2.695-1.094t-1.003-2.759q0-1.74 1.035-2.85 1.036-1.109 2.79-1.109 1.692 0 2.72 1.093.979 1.064.98 2.743m-1.771.054q0-1.037-.458-1.778-.538-.897-1.532-.897-1.028 0-1.566.897-.459.74-.458 1.808 0 1.036.458 1.778.554.896 1.55.896.978 0 1.532-.912.474-.756.474-1.792M102.284 13.854l-2.404 7.49h-1.564l-.996-3.253a24 24 0 0 1-.618-2.42h-.03a17 17 0 0 1-.618 2.42l-1.058 3.253h-1.582l-2.26-7.49h1.754l.869 3.56q.314 1.264.522 2.404h.03q.191-.94.634-2.388l1.09-3.575h1.392l1.045 3.499q.38 1.28.616 2.466h.047q.174-1.155.522-2.466l.932-3.499h1.677zM111.137 21.344h-1.707v-4.29q.001-1.983-1.549-1.983-.758-.001-1.233.545a1.9 1.9 0 0 0-.474 1.284v4.442h-1.708v-5.348q0-.986-.062-2.144h1.501l.08 1.171h.047a2.43 2.43 0 0 1 .885-.904q.696-.42 1.548-.42 1.076 0 1.788.678.884.832.884 2.482zM115.847 21.343h-1.706V10.417h1.706zM125.902 17.537q0 1.726-1.012 2.836-1.061 1.14-2.814 1.14-1.695.001-2.696-1.094t-1.002-2.759q0-1.74 1.035-2.85 1.036-1.109 2.788-1.109 1.692 0 2.722 1.093.978 1.064.979 2.743m-1.773.054q0-1.037-.458-1.778-.537-.897-1.53-.897-1.031 0-1.566.897-.46.74-.458 1.808 0 1.036.458 1.778.554.896 1.549.896.978 0 1.531-.912.475-.756.474-1.792M134.167 21.344h-1.533l-.127-.863h-.047q-.787 1.032-2.244 1.033-1.09-.001-1.754-.679-.601-.616-.601-1.525-.001-1.372 1.178-2.096 1.178-.725 3.313-.709v-.14q0-1.479-1.595-1.479-1.137 0-2.003.555l-.347-1.093c.713-.43 1.595-.647 2.635-.647 2.007 0 3.015 1.033 3.015 3.098v2.759q0 1.123.11 1.785m-1.773-2.575v-1.155q-2.825-.047-2.825 1.51-.001.585.327.879.332.292.834.292c.375 0 .726-.116 1.045-.347a1.42 1.42 0 0 0 .619-1.178M143.872 21.343h-1.516l-.08-1.203h-.047q-.727 1.374-2.467 1.373-1.39 0-2.308-1.063-.916-1.062-.916-2.758 0-1.819.996-2.944.965-1.05 2.371-1.049 1.549 0 2.164 1.017h.033v-4.3h1.709v8.91q0 1.092.061 2.017m-1.77-3.158v-1.25q0-.323-.047-.524a1.9 1.9 0 0 0-.618-1.009 1.7 1.7 0 0 0-1.142-.408q-.954 0-1.503.74-.546.741-.547 1.896 0 1.11.524 1.803.556.74 1.493.74.84 0 1.349-.617.493-.57.491-1.372M158.478 17.537q0 1.726-1.012 2.836c-.707.76-1.642 1.14-2.814 1.14q-1.688.001-2.696-1.094-1.002-1.095-1.002-2.759 0-1.74 1.035-2.85 1.035-1.109 2.792-1.109 1.69 0 2.718 1.093.978 1.064.979 2.743m-1.77.054q0-1.037-.457-1.778c-.361-.598-.869-.897-1.534-.897q-1.026 0-1.566.897-.459.74-.458 1.808 0 1.036.458 1.778.554.896 1.55.896.98 0 1.533-.912.473-.756.474-1.792M167.661 21.344h-1.706v-4.29q.001-1.983-1.55-1.983-.76-.001-1.232.545a1.9 1.9 0 0 0-.474 1.284v4.442h-1.71v-5.348q0-.986-.06-2.144h1.499l.08 1.171h.048q.302-.545.884-.904a2.95 2.95 0 0 1 1.55-.42q1.075 0 1.786.678.887.832.885 2.482zM179.155 15.1h-1.881v3.64q.002 1.386.996 1.387.46 0 .761-.078l.044 1.263q-.506.186-1.326.186-1.011 0-1.58-.6-.57-.602-.57-2.02V15.1h-1.123v-1.247h1.123V12.48l1.674-.493v1.864h1.88v1.249zM188.196 21.343h-1.709v-4.258q0-2.015-1.547-2.015-1.186 0-1.63 1.168-.077.246-.079.6v4.504h-1.707V10.417h1.707v4.514h.032q.808-1.232 2.308-1.232 1.06 0 1.757.679.868.846.868 2.512zM197.522 17.244q0 .448-.063.755h-5.122c.023.74.267 1.304.741 1.695q.651.524 1.677.524 1.137 0 2.072-.354l.267 1.157q-1.092.462-2.578.462-1.787 0-2.805-1.025-1.02-1.025-1.018-2.75-.001-1.695.948-2.82.992-1.202 2.686-1.202 1.659 0 2.511 1.202.686.954.684 2.356m-1.629-.43c.013-.495-.1-.92-.331-1.28q-.444-.694-1.359-.694-.837 0-1.359.678-.425.541-.507 1.295z"/></svg>
